!!!COM: Music21
!!!OTL: Marcha de Campañó
!!!OMV: pezas_marchas_marcha-de-campano_marcha-de-campano-partitura.musicxml
**kern
*I"Gaita
*I'Bag
*clefG^2
*k[]
*M3/8
=1
8cccL
16ggL
16eeJ
8ccJ
=
8cccL
16ggL
16eeJ
8ccJ
=
8ggL
16ffL
16dd
16b
16aaJJ
=
16ggLL
16ff
16ee
16ddJ
8ccJ
=
8cccL
16ggL
16eeJ
8ccJ
=
8cccL
16ggL
16eeJ
8ccJ
=
8ggL
16ffL
16dd
16b
16aaJJ
=
4cc
8r
!!linebreak:original
=||
*M3/8
8cccL
16ggL
16eeJ
8ccJ
=
8cccL
16ggL
16eeJ
8ccJ
=
8ggL
16ffL
16dd
16b
16aaJJ
=
16ggLL
16ff
16ee
16ddJ
8ccJ
=
8cccL
16ggL
16eeJ
8ccJ
=
8cccL
16ggL
16eeJ
8ccJ
=
8ggL
16ffL
16dd
16b
16aaJJ
=
4cc
8r
!!linebreak:original
=||
8ffL
16ffL
16ee
16ff
16ggJJ
=
8eeL
16eeL
16dd
16ee
16ffJJ
=
8ddL
16ddL
16b
16dd
16aaJJ
=
16ggLL
16ff
16ee
16ddJ
8ccJ
=
8ffL
16ffL
16ee
16ff
16ggJJ
=
8eeL
16eeL
16dd
16ee
16ffJJ
=
8ddL
16ddL
16cc
16dd
16eeJJ
=
4.cc
!!linebreak:original
=||
8ffL
16ffL
16ee
16ff
16ggJJ
=
8eeL
16eeL
16dd
16ee
16ffJJ
=
8ddL
16ddL
16b
16dd
16aaJJ
=
16ggLL
16ff
16ee
16ddJ
8ccJ
=
8ffL
16ffL
16ee
16ff
16ggJJ
=
8eeL
16eeL
16dd
16ee
16ffJJ
=
8ddL
16ddL
16cc
16dd
16eeJJ
=
4.cc
=||
*-
